dist/img/behance.svg

<svg width="26" height="17" viewBox="0 0 26 17" fill="none" xmlns="http://www.w3.org/2000/svg">
<path d="M22.7709 3.05235H16.4893V1.49158H22.7709V3.05235ZM13.1693 9.44927C13.5739 10.0777 13.777 10.8416 13.777 11.7347C13.777 12.6616 13.5485 13.4908 13.0839 14.2239C12.7885 14.7093 12.4209 15.1193 11.9801 15.4485C11.4832 15.83 10.8955 16.0931 10.2201 16.2339C9.54163 16.3747 8.80855 16.4431 8.01855 16.4431H0.993164V0.846191H8.52547C10.4239 0.876191 11.7701 1.42619 12.5647 2.50773C13.0416 3.17004 13.2778 3.96465 13.2778 4.8885C13.2778 5.84311 13.0378 6.60542 12.557 7.18465C12.2893 7.51004 11.8939 7.80619 11.3693 8.07234C12.1639 8.36388 12.7662 8.82004 13.1693 9.44927ZM4.59009 6.99542H7.89086C8.56932 6.99542 9.11778 6.86542 9.53932 6.6085C9.96163 6.35081 10.1724 5.89311 10.1724 5.23619C10.1724 4.51158 9.89393 4.03004 9.3347 3.7985C8.85393 3.63696 8.23932 3.55388 7.49393 3.55388H4.59009V6.99542ZM10.4901 11.5116C10.4901 10.7016 10.1585 10.1423 9.49778 9.84081C9.12855 9.67081 8.60701 9.58234 7.93855 9.57619H4.59009V13.7323H7.88547C8.56316 13.7323 9.08701 13.6447 9.46547 13.4585C10.1478 13.12 10.4901 12.4731 10.4901 11.5116ZM25.1009 8.97465C25.1778 9.48542 25.2124 10.2254 25.197 11.1931H17.0632C17.1085 12.3162 17.4955 13.1008 18.2316 13.55C18.6739 13.8316 19.2116 13.9693 19.8416 13.9693C20.5055 13.9693 21.0462 13.8016 21.4624 13.457C21.6893 13.2739 21.8893 13.0154 22.0616 12.6908H25.0439C24.9647 13.3531 24.607 14.0247 23.9609 14.71C22.9616 15.7947 21.5601 16.3416 19.7601 16.3416C18.2716 16.3416 16.9616 15.88 15.8239 14.9654C14.6893 14.0485 14.1201 12.557 14.1201 10.4908C14.1201 8.55311 14.6324 7.0685 15.6585 6.03696C16.6878 5.00235 18.0162 4.48773 19.6547 4.48773C20.6255 4.48773 21.5009 4.66081 22.2824 5.00927C23.0609 5.35927 23.7039 5.9085 24.2101 6.66388C24.6678 7.32927 24.9632 8.0985 25.1009 8.97465ZM22.1647 9.26619C22.1116 8.49004 21.8516 7.90234 21.3839 7.50081C20.9201 7.09696 20.3424 6.89542 19.6532 6.89542C18.9009 6.89542 18.3232 7.11081 17.9093 7.53542C17.4947 7.96081 17.237 8.53619 17.1309 9.26619H22.1647Z" fill="#707070"/>
</svg>

<svg width="26" height="17" fill="none" xmlns="http://www.w3.org/2000/svg"><path d="M22.77 3.052h-6.28v-1.56h6.28v1.56zm-9.6 6.397c.404.629.607 1.393.607 2.286 0 .927-.228 1.756-.693 2.489a4.301 4.301 0 01-1.104 1.224 4.285 4.285 0 01-1.76.786c-.678.14-1.411.21-2.201.21H.993V.845h7.532c1.899.03 3.245.58 4.04 1.662.477.662.713 1.457.713 2.38 0 .955-.24 1.717-.721 2.297-.268.325-.663.621-1.188.887.795.292 1.397.748 1.8 1.377zM4.59 6.995h3.3c.68 0 1.228-.13 1.65-.386.422-.258.632-.716.632-1.373 0-.724-.278-1.206-.837-1.437-.481-.162-1.096-.245-1.841-.245H4.59v3.441zm5.9 4.517c0-.81-.332-1.37-.992-1.671-.37-.17-.891-.259-1.56-.265H4.59v4.156h3.295c.678 0 1.202-.087 1.58-.273.683-.339 1.025-.986 1.025-1.947zM25.1 8.975c.078.51.112 1.25.097 2.218h-8.134c.046 1.123.433 1.908 1.169 2.357.442.282.98.42 1.61.42.664 0 1.204-.168 1.62-.513.227-.183.427-.442.6-.766h2.982c-.08.662-.437 1.334-1.083 2.019-1 1.085-2.4 1.632-4.2 1.632-1.49 0-2.8-.462-3.937-1.377-1.135-.916-1.704-2.408-1.704-4.474 0-1.938.512-3.422 1.539-4.454 1.029-1.035 2.357-1.55 3.996-1.55.97 0 1.846.174 2.627.522.779.35 1.422.9 1.928 1.655.458.665.753 1.434.89 2.31zm-2.935.291c-.053-.776-.313-1.364-.781-1.765-.464-.404-1.042-.606-1.73-.606-.753 0-1.33.216-1.745.64-.414.426-.672 1.001-.778 1.731h5.034z" fill="#707070"/></svg>
